X:1
T:The Waves of Salvation
T:The Waves of Salvation
T:Anthony Johnson Showalter
T:Mrs. J. M. Hunter, ca. 1922
T:Public Domain Courtesy of the Cyber Hymnal™
C:Anthony Johnson Showalter
Z:Public Domain
Z:Courtesy of the Cyber Hymnal™
%%score ( 1 2 ) 3
L:1/8
Q:1/4=107
M:3/4
K:Ab
V:1 treble 
V:2 treble 
V:3 bass 
V:1
 [CE][EA] | [EG]3 E [DF][DG] | [CA]2 [CE]2 [EA][Ec] | [=DB]3 [DF] [_DG][CA] | [EB]4 [EB][Ec] | %5
w: 1.~O ye|waves of free sal-|va- tion, On- ward|sweep from day to|day, Till all|
w: 2.~O ye|waves of free sal-|va- tion, Won- drous|joy to mor- tals|bring, Giv- ing|
w: 3.~O ye|waves of free sal-|va- tion, Still en-|rich this world of|ours, Till each|
w: 4.~O ye|waves of free sal-|va- tion, Tar- ry|not for wind nor|tide; May each|
 [Ed]3 [EG] [EA][EB] | [Ec]2 [Ae]2 [Ac][Ac] | [GB][Ge] [EG]2 [=DF]2 | E4 ||"^Refrain" EE | %10
w: trace of de- so-|la- tion From our|earth is washed a-|way.||
w: souls a glad trans-|la- tion To the|pal- ace of the|King.||
w: high and low- ly|sta- tion Shall be|bright with sweet- est|flow’rs.||
w: heart, in ac- cep-|ta- tion, To your|glad- ness o- pen|wide.||
 [Gd]3 [^Fc] [Gd][Ge] | [Ac]4 [Ec][=Ec] | [Ff]3 [Fe] [Fd][Fc] | [Fd]4 [EB][EB] | %14
w: ||||
w: ||||
w: ||||
w: ||||
 [Ee]3 [Ec] [=Ec][EB] | [FA]4 [EA][FB] | [Ec]E [Ac]2 B2 | [EA]4 |] %18
w: ||||
w: ||||
w: ||||
w: ||||
V:2
 x2 | x3 E x2 | x6 | x6 | x6 | x6 | x6 | x6 | E4 || EE | x6 | x6 | x6 | x6 | x6 | x6 | %16
 x E x (G E) x | x4 |] %18
V:3
 [A,,A,][A,,C] | [E,B,]3 [E,G,] [E,A,][E,B,] | [A,,A,]2 [A,,A,]2 [C,A,][A,,A,] | %3
w: ~ ~|~ ~ ~ ~|~ ~ ~ ~|
 [B,,F,]3 [B,,B,] [D,B,][F,A,] | [E,G,]4 [E,G,][E,A,] | [E,B,]3 [D,B,] [C,A,][B,,G,] | %6
w: ~ ~ ~ ~|~ ~ ~|~ ~ ~ ~|
 [A,,A,]2 [A,,C]2 [A,,E][A,,E] | [B,,E][B,,B,] [B,,B,]2 [B,,A,]2 | [E,G,]4 || [E,G,][E,G,] | %10
w: ~ ~ ~ ~|~ ~ ~ ~|~|O ye|
 [E,B,]3 [E,=A,] [E,B,][E,E] | [A,E]4 [A,C][G,B,] | [F,A,]3 [F,C] [F,B,][F,=A,] | %13
w: waves, roll on, roll|on! With a|might- y sweep, roll|
 [B,,B,]4 [E,G,][D,G,] | [C,A,]3 [A,,A,] [C,G,][C,C] | [F,C]4 [C,A,][D,A,] | %16
w: on! Till the|lost are ga- thered|in, Saved for-|
 [E,A,][E,C] [E,E]2 [E,D]2 | [A,,C]4 |] %18
w: ev- er- more from|sin.|

